client/public/img/game/winter/obstacles/cargo_ship_stair_winter_2.svg

<?xml version="1.0" encoding="UTF-8" standalone="no"?>
<svg
   width="556.276"
   height="254.658"
   viewBox="0 0 147.181 67.378"
   version="1.1"
   id="svg18"
   sodipodi:docname="cargo_ship_stair_winter_2.svg"
   inkscape:version="1.3.2 (091e20e, 2023-11-25, custom)"
   xmlns:inkscape="http://www.inkscape.org/namespaces/inkscape"
   xmlns:sodipodi="http://sodipodi.sourceforge.net/DTD/sodipodi-0.dtd"
   xmlns="http://www.w3.org/2000/svg"
   xmlns:svg="http://www.w3.org/2000/svg">
  <defs
     id="defs18" />
  <sodipodi:namedview
     id="namedview18"
     pagecolor="#ffffff"
     bordercolor="#000000"
     borderopacity="0.25"
     inkscape:showpageshadow="2"
     inkscape:pageopacity="0.0"
     inkscape:pagecheckerboard="0"
     inkscape:deskcolor="#d1d1d1"
     inkscape:zoom="1.9882217"
     inkscape:cx="298.75944"
     inkscape:cy="116.43571"
     inkscape:window-width="1920"
     inkscape:window-height="1017"
     inkscape:window-x="-8"
     inkscape:window-y="-8"
     inkscape:window-maximized="1"
     inkscape:current-layer="svg18" />
  <g
     transform="translate(-1398.221 152.032)"
     id="g18">
    <path
       d="M1415.846-147.227v57.767h124.751v-57.767h-110.89z"
       style="fill:#9a9a9a;fill-opacity:1;stroke:#262626;stroke-width:2.00001;stroke-dasharray:none;stroke-opacity:1"
       id="path1" />
    <g
       fill="#878787"
       stroke="#4d4d4d"
       stroke-linecap="square"
       stroke-width="1.666"
       style="stroke:#2b2b2b;stroke-width:.999541;stroke-opacity:1"
       id="g10">
      <path
         d="M1480.44-26.897h13.86V30.87h-13.86z"
         style="fill:#000;fill-opacity:.128713;stroke:#2b2b2b;stroke-width:1.99909;stroke-dasharray:none;stroke-opacity:1"
         transform="matrix(1.00093 0 0 1 -52.104 -120.33)"
         id="path2" />
      <path
         d="M1494.286-26.897h13.861V30.87h-13.86z"
         style="fill:#000;fill-opacity:.178218;stroke:#2b2b2b;stroke-width:1.99909;stroke-dasharray:none;stroke-opacity:1"
         transform="matrix(1.00093 0 0 1 -52.104 -120.33)"
         id="path3" />
      <path
         d="M1508.133-26.897h13.861V30.87h-13.86z"
         style="fill:#000;fill-opacity:.224422;stroke:#2b2b2b;stroke-width:1.99909;stroke-dasharray:none;stroke-opacity:1"
         transform="matrix(1.00093 0 0 1 -52.104 -120.33)"
         id="path4" />
      <path
         d="M1521.98-26.897h13.861V30.87h-13.861Z"
         style="fill:#000;fill-opacity:.273927;stroke:#2b2b2b;stroke-width:1.99909;stroke-dasharray:none;stroke-opacity:1"
         transform="matrix(1.00093 0 0 1 -52.104 -120.33)"
         id="path5" />
      <path
         d="M1535.827-26.897h13.861V30.87h-13.861z"
         style="fill:#000;fill-opacity:.346535;stroke:#2b2b2b;stroke-width:1.99909;stroke-dasharray:none;stroke-opacity:1"
         transform="matrix(1.00093 0 0 1 -52.104 -120.33)"
         id="path6" />
      <path
         d="M1549.674-26.897h13.861V30.87h-13.861z"
         style="fill:#000;fill-opacity:.425743;stroke:#2b2b2b;stroke-width:1.99909;stroke-dasharray:none;stroke-opacity:1"
         transform="matrix(1.00093 0 0 1 -52.104 -120.33)"
         id="path7" />
      <path
         d="M1563.52-26.897h13.862V30.87h-13.861z"
         style="fill:#000;fill-opacity:.475248;stroke:#2b2b2b;stroke-width:1.99909;stroke-dasharray:none;stroke-opacity:1"
         transform="matrix(1.00093 0 0 1 -52.104 -120.33)"
         id="path8" />
      <path
         d="M1577.367-26.897h13.862V30.87h-13.862z"
         style="fill:#000;fill-opacity:.514852;stroke:#2b2b2b;stroke-width:1.99909;stroke-dasharray:none;stroke-opacity:1"
         transform="matrix(1.00093 0 0 1 -52.104 -120.33)"
         id="path9" />
      <path
         d="M1466.593-26.897h13.86V30.87h-13.86z"
         style="fill:#000;fill-opacity:.0693069;stroke:#2b2b2b;stroke-width:1.99909;stroke-dasharray:none;stroke-opacity:1"
         transform="matrix(1.00093 0 0 1 -52.104 -120.33)"
         id="path10" />
    </g>
    <rect
       width="124.751"
       height="3.358"
       x="1415.846"
       y="-148.906"
       ry="1.679"
       style="fill:#a3a3a3;fill-opacity:1;stroke:#171717;stroke-width:2;stroke-linecap:round;stroke-linejoin:round;stroke-dasharray:none;stroke-opacity:1"
       id="rect10" />
    <rect
       width="124.751"
       height="3.358"
       x="1415.846"
       y="-91.139"
       ry="1.679"
       style="fill:#a3a3a3;fill-opacity:1;stroke:#171717;stroke-width:2;stroke-linecap:round;stroke-linejoin:round;stroke-dasharray:none;stroke-opacity:1"
       id="rect11" />
    <circle
       cx="1499.018"
       cy="-147.227"
       r="3.806"
       style="fill:#a3a3a3;fill-opacity:1;stroke:#171717;stroke-width:2;stroke-linecap:round;stroke-linejoin:round;stroke-dasharray:none;stroke-opacity:1"
       id="circle13" />
    <circle
       cx="1540.597"
       cy="-147.227"
       r="3.806"
       style="fill:#a3a3a3;fill-opacity:1;stroke:#171717;stroke-width:2;stroke-linecap:round;stroke-linejoin:round;stroke-dasharray:none;stroke-opacity:1"
       id="circle14" />
    <circle
       cx="1415.846"
       cy="-89.46"
       r="3.806"
       style="fill:#a3a3a3;fill-opacity:1;stroke:#171717;stroke-width:2;stroke-linecap:round;stroke-linejoin:round;stroke-dasharray:none;stroke-opacity:1"
       id="circle15" />
    <circle
       cx="1457.439"
       cy="-89.46"
       r="3.806"
       style="fill:#a3a3a3;fill-opacity:1;stroke:#171717;stroke-width:2;stroke-linecap:round;stroke-linejoin:round;stroke-dasharray:none;stroke-opacity:1"
       id="circle16" />
    <circle
       cx="1499.018"
       cy="-89.46"
       r="3.806"
       style="fill:#a3a3a3;fill-opacity:1;stroke:#171717;stroke-width:2;stroke-linecap:round;stroke-linejoin:round;stroke-dasharray:none;stroke-opacity:1"
       id="circle17" />
  </g>
  <path
     id="path18"
     style="fill:#c9d1d9;stroke:#a2a5c0;stroke-width:2.30002;stroke-linecap:square;stroke-linejoin:round;stroke-miterlimit:10.8;paint-order:fill markers stroke"
     d="M 19.304201 3.12585 C 18.374036 3.12585 17.624721 3.8746481 17.624721 4.8048132 C 17.624721 5.7349782 18.374036 6.4837764 19.304201 6.4837764 L 77.121203 6.4837764 C 77.677537 5.3335936 78.096125 4.2076447 78.323194 3.12585 L 19.304201 3.12585 z " />
  <circle
     cx="1415.846"
     cy="-147.227"
     r="3.806"
     style="fill:#c9d1d9;fill-opacity:1;stroke:#a2a5c0;stroke-width:2;stroke-linecap:round;stroke-linejoin:round;stroke-dasharray:none;stroke-opacity:1"
     id="circle11"
     transform="translate(-1398.221,152.032)" />
  <circle
     cx="1457.439"
     cy="-147.227"
     r="3.806"
     style="fill:#c9d1d9;fill-opacity:1;stroke:#a2a5c0;stroke-width:2;stroke-linecap:round;stroke-linejoin:round;stroke-dasharray:none;stroke-opacity:1"
     id="circle12"
     transform="translate(-1398.221,152.032)" />
  <path
     id="path19"
     style="fill:#c9d1d9;fill-opacity:1;stroke:#a2a5c0;stroke-width:2.30002;stroke-linecap:square;stroke-linejoin:round;stroke-miterlimit:10.8;stroke-opacity:1;paint-order:fill markers stroke"
     d="M 134.41421 60.893243 C 133.83585 61.961329 133.36206 63.119556 132.97502 64.251169 L 140.69701 64.251169 C 141.62718 64.251169 142.37598 63.502371 142.37598 62.572206 C 142.37598 61.642041 141.62718 60.893243 140.69701 60.893243 L 134.41421 60.893243 z " />
  <circle
     cx="1540.597"
     cy="-89.46"
     r="3.806"
     style="fill:#c9d1d9;fill-opacity:1;stroke:#a2a5c0;stroke-width:2;stroke-linecap:round;stroke-linejoin:round;stroke-dasharray:none;stroke-opacity:1"
     id="circle18"
     transform="translate(-1398.221,152.032)" />
  <path
     id="path20"
     style="fill:#c9d1d9;fill-opacity:1;stroke:#a2a5c0;stroke-width:2.30002;stroke-linecap:square;stroke-linejoin:round;stroke-miterlimit:10.8;stroke-opacity:1;paint-order:fill markers stroke"
     d="M 73.524532 60.893243 C 73.535981 61.980647 73.506117 63.153144 73.405676 64.251169 L 90.41855 64.251169 C 90.52271 63.167703 90.615891 62.008437 90.666596 60.893243 L 73.524532 60.893243 z " />
  <path
     style="fill:#c9d1d9;fill-opacity:1;stroke:#a2a5c0;stroke-width:2.30002;stroke-linecap:square;stroke-linejoin:round;stroke-miterlimit:10.8;stroke-opacity:1;paint-order:fill markers stroke"
     d="M 126.95359,9.8475036 C 115.12213,9.0908405 101.80241,12.90823 114.44454,14.23898 c 12.64213,1.330751 7.58528,4.258402 9.0491,7.585278 1.46383,3.326876 6.91991,2.661501 11.57753,0.399225 4.65763,-2.262276 3.08369,-11.659619 -8.11758,-12.3759794 z"
     id="path21"
     sodipodi:nodetypes="sssss" />
  <path
     style="fill:#c9d1d9;fill-opacity:1;stroke:#a2a5c0;stroke-width:2.30002;stroke-linecap:square;stroke-linejoin:round;stroke-miterlimit:10.8;stroke-opacity:1;paint-order:fill markers stroke"
     d="m 31.538785,47.640818 c -5.988376,0.399223 -12.109828,2.262275 -7.052975,5.855302 5.05685,3.593025 16.501305,4.657627 20.493557,2.92765 3.992251,-1.729974 10.246776,-2.395349 7.851427,-6.520677 -2.395351,-4.125326 -21.292009,-2.262275 -21.292009,-2.262275 z"
     id="path22" />
  <path
     style="fill:#c9d1d9;fill-opacity:1;stroke:#a2a5c0;stroke-width:2.30002;stroke-linecap:square;stroke-linejoin:round;stroke-miterlimit:10.8;stroke-opacity:1;paint-order:fill markers stroke"
     d="m 116.83989,30.07491 c -10.1137,-3.593025 -14.23903,-5.589151 -5.98838,-9.049101 8.25066,-3.459955 5.98838,9.049101 5.98838,9.049101 z"
     id="path23" />
</svg>

<svg xmlns="http://www.w3.org/2000/svg" width="556.276" height="254.658" viewBox="0 0 147.181 67.378"><g transform="translate(-1398.221 152.032)"><path d="M1415.846-147.227v57.767h124.751v-57.767h-110.89z" style="fill:#9a9a9a;fill-opacity:1;stroke:#262626;stroke-width:2.00001;stroke-dasharray:none;stroke-opacity:1"/><g fill="#878787" stroke="#4d4d4d" stroke-linecap="square" stroke-width="1.666" style="stroke:#2b2b2b;stroke-width:.999541;stroke-opacity:1"><path d="M1480.44-26.897h13.86V30.87h-13.86z" style="fill:#000;fill-opacity:.128713;stroke:#2b2b2b;stroke-width:1.99909;stroke-dasharray:none;stroke-opacity:1" transform="matrix(1.00093 0 0 1 -52.104 -120.33)"/><path d="M1494.286-26.897h13.861V30.87h-13.86z" style="fill:#000;fill-opacity:.178218;stroke:#2b2b2b;stroke-width:1.99909;stroke-dasharray:none;stroke-opacity:1" transform="matrix(1.00093 0 0 1 -52.104 -120.33)"/><path d="M1508.133-26.897h13.861V30.87h-13.86z" style="fill:#000;fill-opacity:.224422;stroke:#2b2b2b;stroke-width:1.99909;stroke-dasharray:none;stroke-opacity:1" transform="matrix(1.00093 0 0 1 -52.104 -120.33)"/><path d="M1521.98-26.897h13.861V30.87h-13.861Z" style="fill:#000;fill-opacity:.273927;stroke:#2b2b2b;stroke-width:1.99909;stroke-dasharray:none;stroke-opacity:1" transform="matrix(1.00093 0 0 1 -52.104 -120.33)"/><path d="M1535.827-26.897h13.861V30.87h-13.861z" style="fill:#000;fill-opacity:.346535;stroke:#2b2b2b;stroke-width:1.99909;stroke-dasharray:none;stroke-opacity:1" transform="matrix(1.00093 0 0 1 -52.104 -120.33)"/><path d="M1549.674-26.897h13.861V30.87h-13.861z" style="fill:#000;fill-opacity:.425743;stroke:#2b2b2b;stroke-width:1.99909;stroke-dasharray:none;stroke-opacity:1" transform="matrix(1.00093 0 0 1 -52.104 -120.33)"/><path d="M1563.52-26.897h13.862V30.87h-13.861z" style="fill:#000;fill-opacity:.475248;stroke:#2b2b2b;stroke-width:1.99909;stroke-dasharray:none;stroke-opacity:1" transform="matrix(1.00093 0 0 1 -52.104 -120.33)"/><path d="M1577.367-26.897h13.862V30.87h-13.862z" style="fill:#000;fill-opacity:.514852;stroke:#2b2b2b;stroke-width:1.99909;stroke-dasharray:none;stroke-opacity:1" transform="matrix(1.00093 0 0 1 -52.104 -120.33)"/><path d="M1466.593-26.897h13.86V30.87h-13.86z" style="fill:#000;fill-opacity:.0693069;stroke:#2b2b2b;stroke-width:1.99909;stroke-dasharray:none;stroke-opacity:1" transform="matrix(1.00093 0 0 1 -52.104 -120.33)"/></g><rect width="124.751" height="3.358" x="1415.846" y="-148.906" ry="1.679" style="fill:#a3a3a3;fill-opacity:1;stroke:#171717;stroke-width:2;stroke-linecap:round;stroke-linejoin:round;stroke-dasharray:none;stroke-opacity:1"/><rect width="124.751" height="3.358" x="1415.846" y="-91.139" ry="1.679" style="fill:#a3a3a3;fill-opacity:1;stroke:#171717;stroke-width:2;stroke-linecap:round;stroke-linejoin:round;stroke-dasharray:none;stroke-opacity:1"/><circle cx="1499.018" cy="-147.227" r="3.806" style="fill:#a3a3a3;fill-opacity:1;stroke:#171717;stroke-width:2;stroke-linecap:round;stroke-linejoin:round;stroke-dasharray:none;stroke-opacity:1"/><circle cx="1540.597" cy="-147.227" r="3.806" style="fill:#a3a3a3;fill-opacity:1;stroke:#171717;stroke-width:2;stroke-linecap:round;stroke-linejoin:round;stroke-dasharray:none;stroke-opacity:1"/><circle cx="1415.846" cy="-89.46" r="3.806" style="fill:#a3a3a3;fill-opacity:1;stroke:#171717;stroke-width:2;stroke-linecap:round;stroke-linejoin:round;stroke-dasharray:none;stroke-opacity:1"/><circle cx="1457.439" cy="-89.46" r="3.806" style="fill:#a3a3a3;fill-opacity:1;stroke:#171717;stroke-width:2;stroke-linecap:round;stroke-linejoin:round;stroke-dasharray:none;stroke-opacity:1"/><circle cx="1499.018" cy="-89.46" r="3.806" style="fill:#a3a3a3;fill-opacity:1;stroke:#171717;stroke-width:2;stroke-linecap:round;stroke-linejoin:round;stroke-dasharray:none;stroke-opacity:1"/></g><path d="M19.304 3.126c-.93 0-1.68.749-1.68 1.679s.75 1.679 1.68 1.679h57.817c.557-1.15.975-2.276 1.202-3.358z" style="fill:#c9d1d9;stroke:#a2a5c0;stroke-width:2.30002;stroke-linecap:square;stroke-linejoin:round;stroke-miterlimit:10.8;paint-order:fill markers stroke"/><circle cx="1415.846" cy="-147.227" r="3.806" style="fill:#c9d1d9;fill-opacity:1;stroke:#a2a5c0;stroke-width:2;stroke-linecap:round;stroke-linejoin:round;stroke-dasharray:none;stroke-opacity:1" transform="translate(-1398.221 152.032)"/><circle cx="1457.439" cy="-147.227" r="3.806" style="fill:#c9d1d9;fill-opacity:1;stroke:#a2a5c0;stroke-width:2;stroke-linecap:round;stroke-linejoin:round;stroke-dasharray:none;stroke-opacity:1" transform="translate(-1398.221 152.032)"/><path d="M134.414 60.893c-.578 1.068-1.052 2.227-1.439 3.358h7.722c.93 0 1.679-.749 1.679-1.679s-.749-1.679-1.679-1.679z" style="fill:#c9d1d9;fill-opacity:1;stroke:#a2a5c0;stroke-width:2.30002;stroke-linecap:square;stroke-linejoin:round;stroke-miterlimit:10.8;stroke-opacity:1;paint-order:fill markers stroke"/><circle cx="1540.597" cy="-89.46" r="3.806" style="fill:#c9d1d9;fill-opacity:1;stroke:#a2a5c0;stroke-width:2;stroke-linecap:round;stroke-linejoin:round;stroke-dasharray:none;stroke-opacity:1" transform="translate(-1398.221 152.032)"/><path d="M73.525 60.893a34 34 0 0 1-.12 3.358H90.42a68 68 0 0 0 .248-3.358zM126.954 9.848c-11.832-.757-25.152 3.06-12.51 4.391s7.586 4.258 9.05 7.585c1.463 3.327 6.92 2.662 11.577.4 4.658-2.263 3.084-11.66-8.117-12.376zM31.539 47.64c-5.989.4-12.11 2.263-7.053 5.856s16.501 4.658 20.493 2.928c3.993-1.73 10.247-2.396 7.852-6.52-2.396-4.126-21.292-2.263-21.292-2.263zM116.84 30.075c-10.114-3.593-14.24-5.59-5.988-9.05 8.25-3.46 5.988 9.05 5.988 9.05z" style="fill:#c9d1d9;fill-opacity:1;stroke:#a2a5c0;stroke-width:2.30002;stroke-linecap:square;stroke-linejoin:round;stroke-miterlimit:10.8;stroke-opacity:1;paint-order:fill markers stroke"/></svg>
